X: 216
T: Dong sinu
%%abc-version 2.0
%%abcx-abcm2ps-target-version 5.9.1 (29 Sep 2008)
%%abc-creator hum2abc beta
%%abcx-conversion-date 2013/10/02 07:52:29
%%abc-edited-by Helmut Schaffrath
%%humdrum-veritas 2883829544
%%humdrum-veritas-data 1434077941
%%continueall 1
%%barnumbers 0
L: 1/8
M: 3/8
K: A
B e c [I:setbarnb 1]| 
B/ c/ B B | 
f e B | 
A/ B/ F E | 
B e e | 
B/ c/ B A | 
B/ A/ F E | 
C2z | 
B E F | 
B e c | 
B/ c/ B E | 
F2z | 
B B A | 
B/ c/ B A | 
E/ C/ E F | 
c B A/ F/ | 
E/ F/ E C | 
B,2z |]  



